!!!SOCIAL_FUNCTION:	woman's game songs
!!!PDT:	1958
!!!OTL: No_37_Woman's_Game_Song_(a).krn
!!!REG: Northern California
!!!LANG: Non-Tone
!!!LING_GROUP: Penutian
**kern
*staff1
=1-
=
*clefF4
*k[b-e-]
*M2/4
16d\LK
8.d\J
16d\LK
8.d\J
=2
(16d\LK
8.c\J)
4B-\
=3
*M3/4
4c\
8.d\L
16c\Jk
4B-\
=4
16G\LK
8.G\J
8G\L
8D\J
8D\
8r
=5
*M2/4
16B-\LK
8.B-\J
8d\L
8c\J
=6
8c\L
8F\J
4F\
=7
8G\L
8F\J
4G\
=8
8G\L
8F\J
4G\
=9
8F\L
8D\J
4r
=10
16d\LK
8.d\J
16d\LK
8.d\J
=11
(16d\LK
8.c\J)
4B-\
=12
*M3/4
4c\
8.d\L
16c\Jk
4B-\
=13
16G\LK
8.G\J
8G\L
8D\J
4r
=14
*M2/4
16B-\LK
8.B-\J
8d\L
8c\J
=15
*M3/4
8c\L
8F\J
4G\
8F\
8r
=16
*M2/4
4G\
4F\
=17
*M3/4
4G\
8F\L
8D\J
4r
=18:|!
=
*M2/4
8c\L
8F\J
4F\
=19
4G\
8G\L
8F\J
=20
4G\
4F\
=21
4G\
4F\
==
*-
